X:15
T:Rout Night. WR1776.15, The
B:Wm.Randall CDs 1776
Z:vmp.Steve Mansfield 2015
M:6/8
L:1/8
W:Turn your Part: with your right hand cast off turn with
W:your left hand cast off again cross over to the top
W:lead down 1 Cu. up again cast off
Q:3/8=90
K:A
A2e c2a | fed cBA | Bcd cBA | GAB E3 |
A2e c2a | gfe ^dcB | cag fe^d | e3 E3 :|
|: Ace aga | fed dcB | cde dcB | cBA GFE |
FGA Bcd | cde fga | efe dcB | A3 A,3 :|

